X: 39
T: Slip Jig
B: begged borrowed and stolen
M:9/8
L:1/8
R: slipjig
Q: 3/8=100
K:Dmajor
V:1 
|: "D" F2A ABA ABA| "G" G2B B2A Bcd| "D" F2A ABA ABA | "G" B2e e2d "A"cBA :|
|:"D"f2d e2c d2e | "D"f2d e2d "A"cBA |"D" f2d e2c d2A | "G"B2e e2d "A"cBB :|
% abcbook-tune_id 62828a3a2ad8e7fe071afd38


% abcbook-boost 0
% abcbook-tablature 
% abcbook-transpose 
% abcbook-lastupdated 1652725431069
% abcbook-soundfonts 
% abcbook-repeats 3
% abc-sessionorg_id 11221
% abc-sessionorg_setting 0
% abc-sessionorg_setting_id 11221
% abc-boost 0

